X:1
T:Title
%%score { ( 1 3 4 ) | ( 2 5 ) }
L:1/8
Q:1/4=100
M:4/4
K:Ab
V:1 treble nm="Grand Piano"
V:3 treble 
V:4 treble 
V:2 bass 
V:5 bass 
V:1
 [Ec]2 A>B [Ec]2 d2 | [Ec]4 [CA]4 | [DB]2 G>A [DB]2 c>B | z4 E4 | [A,CE]2 A>B [Ec]2 [_Ge]2 | %5
w: F.~A.~Graves * * * *|||||
 [_Ge]4 [Fd]4 | c2 A>B [Ec]2 B2 | [CA]6 z2 | [Fd]2 [Fd]>[Fd] [Fd]2 [FA]>[=EB] | [Ec]4 [Ec]4 | %10
w: |||||
 [Ee]2 [Ec]>[EB] [EA]2 [Ec]2 | B6 z2 | E2 A>B c2 e>e |[M:5/4] [_Ge]4 [Fd]6 | %14
w: ||||
[M:4/4] A2 B/A/G/A/ [EAc]2 [DGB]2 | [A,CEA]6 z2 |] %16
w: ||
V:2
 [A,,A,]2 C>D [A,,A,]2 F2 | A,,2 E,2 E,2 E,2 | [E,,E,]2 B,>C [E,,E,]2 E>D | A,,2 E,2 [E,A,]2 E,2 | %4
 A,,2 C>D [A,,A,]2 z2 | [C,A,]4 [D,A,]4 | [E,A,E]2 C>D [E,,E,]2 D2 | A,,2 E,2 A,,2 z2 | %8
 [D,A,]2 [D,A,]>[D,A,] [D,A,]2 [D,A,]>[D,A,] | [A,,A,]4 [A,,A,]4 | %10
 [A,C]2 [A,,A,]>[B,,A,] [C,A,]2 [A,,A,]2 | [E,G,E]6 z2 | [A,C]2 [A,C]>[A,D] [A,E]2 [A,C_G]>[A,CG] | %13
[M:5/4][K:bass] [C,A,]4 [D,A,]6 |[M:4/4] C2 D/C/B,/C/ E,2 E,2 | A,,6 z2 |] %16
V:3
 x8 | z2 A,2 A,2 A,2 | x8 | A2- [A,A]2 z2 A,2 | x8 | x8 | x8 | A,2 z2 A,2 z2 | x8 | x8 | x8 | x8 | %12
 x8 |[M:5/4] x10 |[M:4/4] x8 | x8 |] %16
V:4
 x8 | x8 | x8 | C8 | x8 | x8 | x8 | x8 | x8 | x8 | x8 | x8 | x8 |[M:5/4] x10 |[M:4/4] x8 | x8 |] %16
V:5
 x8 | x8 | x8 | x8 | x8 | x8 | x8 | x8 | x8 | x8 | x8 | x8 | x8 |[M:5/4][K:bass] x10 | %14
[M:4/4] [E,E]4 z4 | x8 |] %16

